X:650
T:Dinny Delaney's
C:Chieftains
R:slip jig
D:Deiseal.
Z:id:hn-slipjig-1
M:9/8
K:Ador
|:A2D AGF|A2D EFG|A2D AGF|G2A GED|
A2D AGF|c2de2d|dcA AGE|G2A GED:|
|:dcA AGE|c2G ABc|dcA AGE|G2A GED|
dcA AGE|c2d e2d|dcA AGE|G2A GED:|
|:A2D D2D|A2B G2B|A2B G2A|E2E GED|
A2D D2D|c2d e2d|dcA AGE|G2A GED:|
